X: 14216
T: Full Of Joy
R: polka
M: 2/4
K: Dmajor
A>B AG/E/|A>B AG/E/|A/B/A/E/ A/B/A/E/|GF/E/ D/E/F|
A>B AG/E/|A>B AG/E/|A/B/A/E/ A/B/A/E/|d/e/B/A/ dz|
F/G/F E/F/E|D/E/F/G/ E2|G>F E/F/E/D/|G/D/E/F/ E/F/E/D/|
E>F E>F|E>A G>F|E/F/G/A/ F/G/E/G/|D2 [dFA] z||
|:A3 B/d/|A3 B|de/d/ B/A/^G|A3 z|
A>B de|f/a/e ed|B>A ^G/A/B|A3 z|
d>e dB|A>B de|A/B/d/e/ A/d/B/A/|E=G GF/E/|
AA AB/d/|A3 G/F/|E/F/E/D/ c/d/e/c/|d3 z:|

